ui/StatusQ/src/assets/img/icons/linkPreviewThumbnails/youtube.svg

<svg fill="none" height="40" viewBox="0 0 40 40" width="40" xmlns="http://www.w3.org/2000/svg"><rect fill="#fff" height="40" rx="20" width="40"/><path d="m31.4384 14.5459c-.1359-.4808-.4009-.9191-.7687-1.2713-.3677-.3521-.8255-.6059-1.3275-.736-1.838-.48-9.2355-.48-9.2355-.48s-7.3974.0145-9.2354.4945c-.5021.1301-.95978.3839-1.32756.7361s-.63279.7904-.76865 1.2712c-.55595 3.1273-.77165 7.8924.01519 10.8946.13586.4807.40087.919.76865 1.2712s.82547.6059 1.32757.736c1.838.48 9.2354.48 9.2354.48s7.3975 0 9.2355-.48c.502-.1301.9597-.3838 1.3275-.736s.6328-.7905.7687-1.2712c.5863-3.1317.7671-7.8939-.0152-10.9091z" fill="#f00"/><path d="m17.752 23.404 6.1367-3.4037-6.1367-3.4036z" fill="#fff"/></svg>

<svg width="40" height="40" viewBox="0 0 40 40" fill="none" xmlns="http://www.w3.org/2000/svg">
<rect width="40" height="40" rx="20" fill="white"/>
<path d="M31.4384 14.5459C31.3025 14.0651 31.0375 13.6268 30.6697 13.2746C30.302 12.9225 29.8442 12.6687 29.3422 12.5386C27.5042 12.0586 20.1067 12.0586 20.1067 12.0586C20.1067 12.0586 12.7093 12.0731 10.8713 12.5531C10.3692 12.6832 9.91152 12.937 9.54374 13.2892C9.17596 13.6414 8.91095 14.0796 8.77509 14.5604C8.21914 17.6877 8.00344 22.4528 8.79028 25.455C8.92614 25.9357 9.19115 26.374 9.55893 26.7262C9.92671 27.0784 10.3844 27.3321 10.8865 27.4622C12.7245 27.9422 20.1219 27.9422 20.1219 27.9422C20.1219 27.9422 27.5194 27.9422 29.3574 27.4622C29.8594 27.3321 30.3171 27.0784 30.6849 26.7262C31.0527 26.374 31.3177 25.9357 31.4536 25.455C32.0399 22.3233 32.2207 17.5611 31.4384 14.5459Z" fill="#FF0000"/>
<path d="M17.752 23.404L23.8887 20.0003L17.752 16.5967V23.404Z" fill="white"/>
</svg>
